X:1
T:Title
%%score { ( 1 3 ) | ( 2 4 ) }
L:1/8
M:4/4
K:Bb
V:1 bass nm="Grand Piano"
V:3 bass 
V:2 bass 
V:4 bass 
V:1
 z4 z2[Q:1/4=100] [F,B,D][F,CE] | [B,DF]2 [B,DF]2 [B,DF][DB][EA][A,EG] | %2
 [B,DF]2 [B,DF]2 [B,DF]2[K:bass] [F,B,D][F,CE] | [B,DF]2 [B,DF]2 [B,DF][DB][DA][DG] | %4
 [A,E]2 [A,E]2 E2 CD | E2 [CE]2 [Ac][GB][FA][EG] | [EG]2 [DF]2 [DB]2 [Fd][Fd] | %7
 [Fc]2 [Fc]2 [=Ed][Ec][EB]E |[M:7/8] G2 F2 F3 |[M:1/4] FF |[M:4/4] z2 [F=d]6 | z2 [F=d]6 | %12
 d2 c2 F2 A2 | z4 A,2 cd | [Ec]2 [DB]2 [DA]2 [DB]2 | [DF]6 z2 | z2 [F=d]6 | z2 [F=d]6 | f6- f>e | %19
 d6 d>e | d2 c2 F2 c2 |[M:3/4] [DB]6 |] %22
V:2
 z4 z2 B,,B,, | B,,2 F,,2 B,,[B,,F,][B,,G,]B,, | B,,2 F,,2 B,,2 B,,B,, | %3
 B,,2 F,,2 B,,[B,,F,][B,,F,][B,,F,] | [C,F,]2 [F,,F,]2 [C,F,A,]2 [F,A,][F,B,] | %5
 [C,F,A,]2 [F,,F,]2 [F,,F,][F,,F,][F,A,][F,A,] | [B,,B,]2 [B,,B,]2 [B,,F,]2 [B,,B,][B,,B,] | %7
 [C,A,]2 [C,A,]2 [C,G,][C,G,][C,G,][C,B,C] |[M:7/8] [F,B,C]2 [F,A,C]2 [F,A,E]3 | %9
[M:1/4] [F,A,][F,A,] |[M:4/4] B,6 z2 | B,6 z2 | [F,A,F]2 [F,A,E]2 [F,A,E]2 [F,CE]2 | %13
 [F,A,]2 C2 F,2 [F,A,E][F,A,F] | [B,,B,]2 [B,,F,]2 [B,,F,]2 [B,,F,]2 | B,,>B,, D,>F, B,2 F,F, | %16
 B,6 z2 | B,6 z2 | [B,DB]6- [B,DB]>[B,CF] | [B,F]6 [B,F]>[B,G] | %20
 [F,B,F]2 [F,A,E]2 [F,A,E]2 [F,E]2 |[M:3/4] [B,,F,]6 |] %22
V:3
 x8 | x8 | x6[K:bass] x2 | x8 | x8 | x8 | x8 | x8 |[M:7/8] x7 |[M:1/4] x2 | %10
[M:4/4] [Fd]>[=E_d] z2 z z/ B,/ z2 | [Fd]>[=E_d] z2 z z/ B,/ B,2 | x8 | [Ec]6 z2 | x8 | %15
 B,4 z2 [A,F][A,F] | [Fd]>[=E_d] z2 z z/ B,/ z2 | [Fd]>[=E_d] z2 z z/ B,/ B,2 | x8 | x8 | x8 | %21
[M:3/4] x6 |] %22
V:4
 x8 | x8 | x8 | x8 | x8 | x8 | x8 | x8 |[M:7/8] x7 |[M:1/4] x2 |[M:4/4] B,,>B,, B,,2 D,>F, B,2 | %11
 B,,>B,, B,,2 D,>F, z2 | x8 | z z/ A,/- A,2 z4 | x8 | x8 | B,,>B,, B,,2 D,>F, B,2 | %17
 B,,>B,, B,,2 D,>F, z2 | x8 | x8 | x8 |[M:3/4] x6 |] %22

